app/img/logo.svg

<svg width="156" height="62" viewBox="0 0 156 62" fill="none" xmlns="http://www.w3.org/2000/svg">
<path d="M10.3513 56.6688C10.3513 55.5722 9.9699 54.6476 9.21807 53.8842C8.46624 53.1209 7.55097 52.7446 6.48316 52.7446C5.51341 52.7446 4.67441 53.0456 3.96617 53.6585C3.26882 54.2605 2.83298 54.9916 2.66953 55.8625H1.63441V52.9059H0V60.4318H1.63441V57.3677H2.66953C2.83298 58.2815 3.26882 59.0556 3.96617 59.6685C4.66351 60.2813 5.50251 60.5931 6.48316 60.5931C7.55097 60.5931 8.46624 60.2168 9.21807 59.4534C9.9699 58.7008 10.3513 57.7655 10.3513 56.6688ZM8.71685 56.6688C8.71685 57.3784 8.49893 57.9697 8.06309 58.4321C7.61635 58.9051 7.09334 59.1416 6.48316 59.1416C5.87298 59.1416 5.34997 58.9051 4.91412 58.4321C4.46738 57.9697 4.24946 57.3784 4.24946 56.6688C4.24946 55.9592 4.46738 55.3679 4.91412 54.8949C5.34997 54.4326 5.87298 54.196 6.48316 54.196C7.09334 54.196 7.61635 54.4326 8.06309 54.8949C8.49893 55.3679 8.71685 55.9592 8.71685 56.6688Z" fill="white"/>
<path d="M12.96 52.9064V60.4323H14.5944V57.9595H16.1743C16.9588 57.9595 17.6126 57.7122 18.1247 57.2284C18.6368 56.7446 18.8983 56.1426 18.8983 55.433C18.8983 54.7126 18.6368 54.1213 18.1247 53.6267C17.6017 53.1429 16.9588 52.9064 16.1743 52.9064H12.96ZM16.1198 54.3578C16.4467 54.3578 16.7191 54.4653 16.937 54.6696C17.1549 54.8739 17.2639 55.1319 17.2639 55.433C17.2639 55.734 17.1549 55.992 16.937 56.1963C16.7191 56.4006 16.4467 56.5081 16.1198 56.5081H14.5944V54.3578H16.1198Z" fill="white"/>
<path d="M28.2622 60.4323V52.9064H26.8457L23.0866 57.6907V52.9064H21.4521V60.4323H22.8686L26.6278 55.648V60.4323H28.2622Z" fill="white"/>
<path d="M30.3242 58.9809V61.9913H31.9586V60.4323H36.535V61.9913H38.1694V58.9809H37.2432V52.9064H31.9586V55.2179C31.9586 55.7233 31.915 56.1963 31.8279 56.6371C31.7407 57.0887 31.6426 57.4435 31.5446 57.7122C31.4356 57.9703 31.3158 58.2068 31.1741 58.4326C31.0325 58.6476 30.9453 58.7874 30.8908 58.8519C30.8254 58.9056 30.7927 58.9594 30.7601 58.9809H30.3242ZM33.593 55.2179V54.3578H35.6088V58.9809H32.3945L32.5252 58.8519C32.6015 58.7659 32.6996 58.6261 32.8194 58.4218C32.9393 58.2176 33.0482 57.981 33.1681 57.7122C33.2879 57.4435 33.386 57.0779 33.4623 56.6371C33.5495 56.1963 33.593 55.7233 33.593 55.2179Z" fill="white"/>
<path d="M47.311 60.4323V52.9064H45.8945L42.1354 57.6907V52.9064H40.501V60.4323H41.9175L45.6766 55.648V60.4323H47.311Z" fill="white"/>
<path d="M51.8815 52.9064H50.2471V55.2179C50.2471 56.1211 50.4868 56.8199 50.9662 57.3144C51.4565 57.8198 52.1212 58.067 52.9711 58.067C53.7011 58.067 54.3004 57.9273 54.7689 57.637V60.4323H56.4033V52.9064H54.7689V56.078L54.5837 56.2178C54.4638 56.3038 54.2786 56.3898 54.028 56.4866C53.7774 56.5726 53.5159 56.6156 53.2435 56.6156C52.8076 56.6156 52.4699 56.4973 52.2302 56.2608C52.0013 56.0135 51.8815 55.6695 51.8815 55.2179V52.9064Z" fill="white"/>
<path d="M65.9859 52.9064H64.3515V55.9168H61.0827V52.9064H59.4482V60.4323H61.0827V57.3682H64.3515V60.4323H65.9859V52.9064Z" fill="white"/>
<path d="M72.9544 57.2607H71.1021L72.0283 54.7879L72.9544 57.2607ZM73.4992 58.6584L74.153 60.4323H75.8964L72.8999 52.9064H71.1566L68.1602 60.4323H69.9035L70.5573 58.6584H73.4992Z" fill="white"/>
<path d="M83.0221 52.9064H81.3877V60.4323H83.0221V58.2821L84.0027 57.2069L86.2364 60.4323H88.1432L85.0924 56.0243L87.9253 52.9064H86.0185L83.0221 56.1856V52.9064Z" fill="white"/>
<path d="M91.4614 56.6688C91.4614 55.9808 91.7011 55.3894 92.1805 54.9164C92.649 54.4326 93.2265 54.196 93.913 54.196C94.5994 54.196 95.1769 54.4326 95.6454 54.9164C96.1249 55.3894 96.3646 55.9808 96.3646 56.6688C96.3646 57.3677 96.1249 57.9482 95.6454 58.4213C95.1769 58.9051 94.5994 59.1416 93.913 59.1416C93.2265 59.1416 92.649 58.9051 92.1805 58.4213C91.7011 57.9482 91.4614 57.3677 91.4614 56.6688ZM89.7725 56.6688C89.7725 57.744 90.1756 58.6793 90.971 59.4427C91.7664 60.206 92.7471 60.5931 93.913 60.5931C95.0788 60.5931 96.0595 60.206 96.8549 59.4427C97.6503 58.6793 98.0535 57.744 98.0535 56.6688C98.0535 55.583 97.6503 54.6583 96.8549 53.895C96.0595 53.1316 95.0788 52.7446 93.913 52.7446C92.7471 52.7446 91.7664 53.1316 90.971 53.895C90.1756 54.6583 89.7725 55.583 89.7725 56.6688Z" fill="white"/>
<path d="M104.748 56.1856L102.133 52.9064H100.662V60.4323H102.297V55.433L104.748 58.4971L107.2 55.4115V60.4323H108.834V52.9064H107.385L104.748 56.1856Z" fill="white"/>
<path d="M118.359 52.9064H111.876V60.4323H113.51V54.3578H116.725V60.4323H118.359V52.9064Z" fill="white"/>
<path d="M125.329 57.2607H123.477L124.403 54.7879L125.329 57.2607ZM125.874 58.6584L126.528 60.4323H128.271L125.275 52.9064H123.532L120.535 60.4323H122.279L122.932 58.6584H125.874Z" fill="white"/>
<path d="M136.983 52.9064H135.349V55.9168H132.08V52.9064H130.445V60.4323H132.08V57.3682H135.349V60.4323H136.983V52.9064Z" fill="white"/>
<path d="M141.662 52.9064H140.027V60.4323H141.662V52.9064Z" fill="white"/>
<path d="M150.373 52.9064H146.995C146.232 52.9064 145.611 53.1429 145.121 53.616C144.63 54.089 144.38 54.6804 144.38 55.3792C144.38 55.6802 144.434 55.9598 144.521 56.2286C144.62 56.4973 144.728 56.7016 144.859 56.8521C144.979 57.0027 145.11 57.1424 145.273 57.2714C145.426 57.4005 145.535 57.4865 145.6 57.5187C145.655 57.5402 145.709 57.5725 145.742 57.5832L144.107 60.4323H145.851L147.322 57.7983H148.738V60.4323H150.373V52.9064ZM146.014 55.3792C146.014 55.0782 146.112 54.8416 146.308 54.6481C146.505 54.4546 146.755 54.3578 147.049 54.3578H148.738V56.3468H147.049C146.755 56.3468 146.505 56.2501 146.308 56.0673C146.112 55.8845 146.014 55.648 146.014 55.3792Z" fill="white"/>
<path d="M4.98113 0.335968H0V35.8331H4.98113V22.664C4.98113 20.4361 5.54273 18.6786 6.66593 17.4409C7.78912 16.2032 9.32741 15.5596 11.232 15.5596C12.8679 15.5596 14.2353 16.1537 15.3341 17.2924C16.4329 18.4558 16.9944 19.9163 16.9944 21.6738V35.8578H22V21.6738C22 18.4063 21.0966 15.8319 19.2897 13.9011C17.4828 11.9703 15.1143 11.0049 12.2331 11.0049C11.4029 11.0049 10.5727 11.1039 9.76693 11.3267C8.93674 11.5495 8.27747 11.797 7.74029 12.0693C7.20311 12.3416 6.69034 12.6387 6.22642 12.9852C5.76249 13.3318 5.44506 13.5793 5.29856 13.7278C5.15205 13.8764 5.02997 13.9754 4.98113 14.0496V0.335968Z" fill="#F0145A"/>
<path d="M33.135 0.335907H28V35.8035H33.135V0.335907Z" fill="white"/>
<path d="M63.4225 25.4161L63.6793 22.8827C63.6793 19.4879 62.5496 16.6505 60.2388 14.3705C57.9281 12.0904 55.0525 10.9757 51.612 10.9757C48.1716 10.9757 45.1933 12.1917 42.7285 14.6238C40.2637 17.0559 39.0312 19.9439 39.0312 23.3894C39.0312 26.9361 40.315 29.9762 42.8312 32.5096C45.3473 35.043 48.377 36.3097 51.8688 36.3097C53.2039 36.3097 54.4363 36.107 55.6687 35.7524C56.9011 35.347 57.9281 34.9417 58.647 34.5363C59.4172 34.0803 60.1875 33.5736 60.855 33.0163C61.5226 32.459 61.9847 32.0536 62.1901 31.8003C62.3955 31.5469 62.5496 31.3949 62.6523 31.2429L59.3145 27.9495L58.5443 28.9122C58.0308 29.5202 57.1578 30.1282 55.9254 30.7869C54.6417 31.4456 53.3066 31.7496 51.8688 31.7496C49.8661 31.7496 48.1716 31.1416 46.7338 29.8749C45.296 28.6082 44.423 27.1388 44.1663 25.4161H63.4225ZM51.612 15.2825C53.512 15.2825 55.0525 15.8398 56.3362 16.9039C57.5686 18.0186 58.3389 19.3866 58.647 21.1093H44.3717C44.8338 19.3866 45.6554 18.0186 46.9392 16.9039C48.1716 15.8398 49.7634 15.2825 51.612 15.2825Z" fill="white"/>
<path d="M87.3716 34.3337C87.3716 36.5631 86.704 38.3871 85.3176 39.8058C83.9825 41.1738 82.2879 41.8832 80.1826 41.8832C79.2583 41.8832 78.334 41.7312 77.461 41.4778C76.5881 41.2245 75.9205 40.9205 75.3557 40.5658C74.7908 40.2111 74.2773 39.8565 73.7638 39.4005C73.3017 38.9444 72.9936 38.6404 72.8395 38.4884C72.6855 38.3364 72.5828 38.1844 72.4801 38.0831L69.1423 41.3765L69.5531 41.8832C69.8099 42.2379 70.272 42.6939 70.8882 43.2006C71.5044 43.6566 72.2233 44.1632 73.0449 44.6699C73.8665 45.1259 74.8935 45.5313 76.1773 45.886C77.461 46.2406 78.7961 46.4433 80.1826 46.4433C83.6744 46.4433 86.55 45.2779 88.9634 42.9472C91.3255 40.5658 92.5066 37.7284 92.5066 34.283V11.4824H87.3716V14.0158L86.4986 13.2558C85.9338 12.7491 85.0608 12.2424 83.8284 11.7357C82.596 11.229 81.2609 10.9757 79.9258 10.9757C76.7935 10.9757 74.1233 12.1411 71.8125 14.5225C69.5018 16.9039 68.3721 19.7413 68.3721 23.136C68.3721 26.5308 69.5018 29.3682 71.8125 31.7496C74.1233 34.131 76.7935 35.2964 79.9258 35.2964C80.7988 35.2964 81.6204 35.195 82.4933 34.9923C83.3149 34.739 83.9825 34.4857 84.5473 34.2323C85.1122 33.979 85.6257 33.675 86.0878 33.3203C86.55 32.9656 86.9094 32.7123 87.0121 32.6109L87.3716 32.2563V34.3337ZM73.5071 23.136C73.5071 21.008 74.1746 19.2346 75.5611 17.7652C76.9475 16.2958 78.5907 15.5358 80.4393 15.5358C82.2879 15.5358 83.9311 16.2958 85.3176 17.7652C86.6527 19.2346 87.3716 21.008 87.3716 23.136C87.3716 25.2641 86.6527 27.0375 85.3176 28.5068C83.9311 29.9762 82.2879 30.7362 80.4393 30.7362C78.5907 30.7362 76.9475 29.9762 75.5611 28.5068C74.1746 27.0375 73.5071 25.2641 73.5071 23.136Z" fill="white"/>
<path d="M119.308 35.803V20.096C119.308 17.5119 118.333 15.3332 116.433 13.6104C114.533 11.8371 112.068 10.9757 109.038 10.9757C107.857 10.9757 106.676 11.1277 105.547 11.4317C104.417 11.7864 103.493 12.1411 102.825 12.5464C102.157 12.9518 101.49 13.4078 100.874 13.9651C100.257 14.4718 99.898 14.8265 99.6926 15.0292C99.5385 15.2318 99.3845 15.3838 99.2818 15.5358L102.62 18.8293L103.287 17.9679C103.698 17.4105 104.417 16.9039 105.495 16.3465C106.574 15.7892 107.755 15.5358 109.038 15.5358C110.527 15.5358 111.76 15.9918 112.736 16.8532C113.711 17.7146 114.173 18.8293 114.173 20.096L105.187 21.616C102.979 21.9707 101.182 22.832 99.9493 24.2001C98.6656 25.5681 97.998 27.2401 97.998 29.2162C97.998 31.0909 98.8196 32.7123 100.463 34.131C102.157 35.6004 104.211 36.3097 106.728 36.3097C107.601 36.3097 108.422 36.2084 109.244 35.955C110.117 35.7524 110.784 35.499 111.349 35.2457C111.914 34.9924 112.427 34.6883 112.89 34.3337C113.352 33.979 113.66 33.7256 113.865 33.6243C114.019 33.4723 114.122 33.3203 114.173 33.2696V35.803H119.308ZM107.498 31.7496C106.163 31.7496 105.084 31.4456 104.314 30.8376C103.493 30.2296 103.133 29.5202 103.133 28.7095C103.133 27.8482 103.39 27.0881 103.955 26.5308C104.52 25.9734 105.29 25.5681 106.214 25.4161L114.173 24.1494V24.6561C114.173 26.9361 113.608 28.6588 112.427 29.9255C111.246 31.1416 109.603 31.7496 107.498 31.7496Z" fill="white"/>
<path d="M130.64 0.335907H125.505V35.8035H130.64V0.335907Z" fill="white"/>
<path d="M153.989 14.2691L153.681 13.9145C153.476 13.7118 153.168 13.4584 152.705 13.1038C152.243 12.7491 151.73 12.4451 151.165 12.0904C150.6 11.7864 149.83 11.5331 148.906 11.2797C147.981 11.077 147.006 10.9757 146.03 10.9757C143.514 10.9757 141.46 11.6851 139.817 13.1038C138.122 14.5731 137.3 16.1945 137.3 18.0692C137.3 19.4373 137.609 20.552 138.225 21.5653C138.841 22.528 139.611 23.2374 140.587 23.6427C141.511 24.0987 142.538 24.5547 143.617 24.9094C144.695 25.2641 145.671 25.5681 146.646 25.8214C147.57 26.1254 148.341 26.4801 148.957 26.9361C149.573 27.3921 149.881 28.0002 149.881 28.7095C149.881 29.6215 149.522 30.3816 148.854 30.9389C148.187 31.4456 147.16 31.7496 145.773 31.7496C144.644 31.7496 143.514 31.4456 142.435 30.9389C141.357 30.3816 140.69 29.9255 140.33 29.5709C140.022 29.2162 139.765 28.9122 139.611 28.7095L136.273 32.0029L136.633 32.459C136.89 32.763 137.249 33.1176 137.763 33.523C138.327 33.979 138.944 34.3843 139.611 34.7897C140.33 35.195 141.254 35.5497 142.333 35.8537C143.411 36.1577 144.592 36.3097 145.773 36.3097C148.495 36.3097 150.754 35.5497 152.449 34.0803C154.143 32.611 155.016 30.7869 155.016 28.7095C155.016 27.3415 154.708 26.1761 154.092 25.2641C153.476 24.3014 152.705 23.592 151.73 23.136C150.806 22.6294 149.779 22.224 148.7 21.8693C147.622 21.5147 146.646 21.16 145.671 20.9573C144.746 20.704 143.976 20.2986 143.36 19.8426C142.744 19.3866 142.435 18.7786 142.435 18.0692C142.435 17.4105 142.744 16.8025 143.411 16.2959C144.027 15.7892 144.9 15.5358 146.03 15.5358C146.852 15.5358 147.673 15.7385 148.443 16.0932C149.265 16.4479 149.83 16.7519 150.087 17.0052C150.343 17.2585 150.549 17.4612 150.651 17.5626L153.989 14.2691Z" fill="white"/>
</svg>

<svg width="156" height="62" fill="none" xmlns="http://www.w3.org/2000/svg"><path d="M10.351 56.669c0-1.097-.381-2.021-1.133-2.785-.752-.763-1.667-1.14-2.735-1.14-.97 0-1.809.302-2.517.914-.697.602-1.133 1.334-1.296 2.204H1.634v-2.956H0v7.526h1.634v-3.064H2.67a3.905 3.905 0 001.296 2.3c.698.613 1.537.925 2.517.925 1.068 0 1.983-.376 2.735-1.14.752-.752 1.133-1.688 1.133-2.784zm-1.634 0c0 .71-.218 1.3-.654 1.763-.447.473-.97.71-1.58.71-.61 0-1.133-.237-1.569-.71-.447-.462-.665-1.054-.665-1.763 0-.71.218-1.301.665-1.774.436-.462.959-.699 1.57-.699.61 0 1.132.237 1.58.699.435.473.653 1.064.653 1.774zm4.243-3.763v7.526h1.634V57.96h1.58c.785 0 1.439-.247 1.95-.73a2.381 2.381 0 00.774-1.796c0-.72-.261-1.312-.773-1.806-.523-.484-1.166-.72-1.95-.72H12.96zm3.16 1.452c.327 0 .6.107.817.312.218.204.327.462.327.763s-.11.559-.327.763a1.15 1.15 0 01-.817.312h-1.526v-2.15h1.526zm12.142 6.074v-7.526h-1.416l-3.76 4.785v-4.785h-1.634v7.526h1.417l3.759-4.784v4.784h1.634zm2.062-1.452v3.011h1.635v-1.559h4.576v1.56h1.634V58.98h-.926v-6.075H31.96v2.312c0 .505-.044.978-.131 1.42a7.134 7.134 0 01-.283 1.074 4.996 4.996 0 01-.37.72c-.143.216-.23.355-.284.42-.066.054-.098.107-.13.129h-.437zm3.269-3.762v-.86h2.016v4.623h-3.215l.131-.13c.077-.085.175-.225.294-.43.12-.203.23-.44.35-.709.119-.269.217-.634.293-1.075.087-.44.131-.914.131-1.42zm13.718 5.214v-7.526h-1.416l-3.76 4.785v-4.785h-1.634v7.526h1.416l3.76-4.784v4.784h1.634zm4.571-7.526h-1.635v2.312c0 .903.24 1.602.72 2.096.49.506 1.154.753 2.004.753.73 0 1.33-.14 1.798-.43v2.795h1.634v-7.526H54.77v3.172l-.185.14c-.12.086-.305.172-.556.269a2.4 2.4 0 01-.785.129c-.435 0-.773-.119-1.013-.355-.229-.248-.348-.592-.348-1.043v-2.312zm14.104 0H64.35v3.01h-3.268v-3.01h-1.635v7.526h1.635v-3.064h3.269v3.064h1.634v-7.526zm6.968 4.354h-1.852l.926-2.472.926 2.473zm.545 1.398l.654 1.774h1.743L72.9 52.906h-1.743l-2.997 7.526h1.743l.654-1.774H73.5zm9.523-5.752h-1.634v7.526h1.634v-2.15l.98-1.075 2.234 3.225h1.907l-3.05-4.408 2.832-3.118H86.02l-2.997 3.28v-3.28zm8.439 3.763c0-.688.24-1.28.72-1.753.468-.483 1.046-.72 1.732-.72.686 0 1.264.237 1.732.72.48.473.72 1.065.72 1.753 0 .699-.24 1.28-.72 1.752-.468.484-1.046.72-1.732.72-.686 0-1.264-.236-1.733-.72-.479-.473-.719-1.053-.719-1.752zm-1.689 0c0 1.075.404 2.01 1.199 2.774.795.763 1.776 1.15 2.942 1.15 1.166 0 2.147-.387 2.942-1.15.795-.764 1.198-1.699 1.198-2.774 0-1.086-.403-2.01-1.198-2.774-.796-.763-1.776-1.15-2.942-1.15-1.166 0-2.147.387-2.942 1.15-.795.763-1.199 1.688-1.199 2.774zm14.976-.483l-2.615-3.28h-1.471v7.526h1.635v-4.999l2.451 3.064 2.452-3.086v5.021h1.634v-7.526h-1.449l-2.637 3.28zm13.611-3.28h-6.483v7.526h1.634v-6.074h3.215v6.074h1.634v-7.526zm6.97 4.354h-1.852l.926-2.472.926 2.473zm.545 1.398l.654 1.774h1.743l-2.996-7.526h-1.743l-2.997 7.526h1.744l.653-1.774h2.942zm11.109-5.752h-1.634v3.01h-3.269v-3.01h-1.635v7.526h1.635v-3.064h3.269v3.064h1.634v-7.526zm4.679 0h-1.635v7.526h1.635v-7.526zm8.711 0h-3.378c-.763 0-1.384.237-1.874.71a2.359 2.359 0 00-.741 1.763c0 .301.054.58.141.85.099.268.207.473.338.623.12.15.251.29.414.42.153.129.262.215.327.247.055.021.109.053.142.064l-1.635 2.85h1.744l1.471-2.635h1.416v2.634h1.635v-7.526zm-4.359 2.473c0-.3.098-.537.294-.73a1.02 1.02 0 01.741-.291h1.689v1.989h-1.689c-.294 0-.544-.097-.741-.28a.912.912 0 01-.294-.688z" fill="#fff"/><path d="M4.981.336H0v35.497h4.981V22.664c0-2.228.562-3.985 1.685-5.223s2.661-1.881 4.566-1.881c1.636 0 3.003.594 4.102 1.732 1.099 1.164 1.66 2.624 1.66 4.382v14.184H22V21.674c0-3.268-.903-5.842-2.71-7.773-1.807-1.93-4.176-2.896-7.057-2.896-.83 0-1.66.099-2.466.322-.83.223-1.49.47-2.027.742-.537.273-1.05.57-1.514.916-.464.347-.78.594-.927.743-.147.148-.269.247-.318.322V.336z" fill="#F0145A"/><path d="M33.135.336H28v35.468h5.135V.335zm30.287 25.08l.257-2.533c0-3.395-1.13-6.232-3.44-8.512-2.31-2.28-5.186-3.395-8.627-3.395-3.44 0-6.419 1.216-8.884 3.648-2.464 2.432-3.697 5.32-3.697 8.765 0 3.547 1.284 6.587 3.8 9.12 2.516 2.534 5.546 3.8 9.038 3.8a13.51 13.51 0 003.8-.557c1.232-.405 2.26-.81 2.978-1.216.77-.456 1.54-.962 2.208-1.52.668-.557 1.13-.962 1.335-1.216.206-.253.36-.405.462-.557l-3.337-3.293-.77.962c-.514.608-1.387 1.216-2.62 1.875-1.283.659-2.618.963-4.056.963-2.003 0-3.697-.608-5.135-1.875-1.438-1.267-2.311-2.736-2.568-4.459h19.257zm-11.81-10.133c1.9 0 3.44.557 4.724 1.62 1.233 1.116 2.003 2.484 2.311 4.206H44.372c.462-1.722 1.283-3.09 2.567-4.205 1.233-1.064 2.824-1.621 4.673-1.621zm35.76 19.051c0 2.23-.668 4.053-2.054 5.472-1.335 1.368-3.03 2.077-5.135 2.077a9.823 9.823 0 01-2.722-.405c-.873-.254-1.54-.558-2.105-.912a11.594 11.594 0 01-1.592-1.166l-.924-.912c-.154-.152-.257-.304-.36-.405l-3.338 3.294.411.506c.257.355.719.81 1.335 1.318.616.456 1.335.962 2.157 1.469.822.456 1.849.861 3.132 1.216a14.98 14.98 0 004.006.557c3.491 0 6.367-1.165 8.78-3.496 2.363-2.381 3.544-5.219 3.544-8.664v-22.8h-5.135v2.533l-.873-.76c-.565-.507-1.438-1.014-2.67-1.52a10.29 10.29 0 00-3.903-.76c-3.133 0-5.803 1.165-8.114 3.546-2.31 2.382-3.44 5.22-3.44 8.614 0 3.395 1.13 6.232 3.44 8.614 2.311 2.381 4.981 3.546 8.114 3.546.873 0 1.694-.101 2.567-.304a17.57 17.57 0 002.054-.76 7.676 7.676 0 001.54-.912c.463-.354.822-.608.925-.71l.36-.354v2.078zM73.507 23.136c0-2.128.668-3.901 2.054-5.37 1.386-1.47 3.03-2.23 4.878-2.23 1.849 0 3.492.76 4.879 2.23 1.335 1.469 2.054 3.242 2.054 5.37s-.72 3.902-2.054 5.37c-1.387 1.47-3.03 2.23-4.879 2.23-1.848 0-3.491-.76-4.878-2.23-1.386-1.468-2.054-3.242-2.054-5.37zm45.801 12.667V20.096c0-2.584-.975-4.763-2.875-6.486-1.9-1.773-4.365-2.634-7.395-2.634-1.181 0-2.362.152-3.491.456-1.13.354-2.054.71-2.722 1.114-.668.406-1.335.862-1.951 1.42-.617.506-.976.86-1.181 1.063-.154.203-.308.355-.411.507l3.338 3.293.667-.861c.411-.558 1.13-1.064 2.208-1.622 1.079-.557 2.26-.81 3.543-.81 1.489 0 2.722.456 3.698 1.317.975.862 1.437 1.976 1.437 3.243l-8.986 1.52c-2.208.355-4.005 1.216-5.238 2.584-1.283 1.368-1.951 3.04-1.951 5.016 0 1.875.822 3.496 2.465 4.915 1.694 1.47 3.748 2.179 6.265 2.179.873 0 1.694-.102 2.516-.355a11.14 11.14 0 002.105-.71 7.707 7.707 0 001.541-.911c.462-.355.77-.608.975-.71.154-.152.257-.304.308-.354v2.533h5.135zm-11.81-4.053c-1.335 0-2.414-.304-3.184-.912-.821-.608-1.181-1.318-1.181-2.129 0-.86.257-1.62.822-2.178.565-.558 1.335-.963 2.259-1.115l7.959-1.267v.507c0 2.28-.565 4.003-1.746 5.27-1.181 1.216-2.824 1.824-4.929 1.824zM130.64.336h-5.135v35.468h5.135V.335zm23.349 13.934l-.308-.355c-.205-.203-.513-.457-.976-.811-.462-.355-.975-.659-1.54-1.014-.565-.304-1.335-.557-2.259-.81a13.51 13.51 0 00-2.876-.304c-2.516 0-4.57.71-6.213 2.128-1.695 1.47-2.517 3.09-2.517 4.965 0 1.368.309 2.483.925 3.496.616.963 1.386 1.672 2.362 2.078.924.456 1.951.912 3.03 1.266 1.078.355 2.054.66 3.029.912.924.304 1.695.66 2.311 1.115.616.456.924 1.064.924 1.773 0 .913-.359 1.673-1.027 2.23-.667.507-1.694.81-3.081.81-1.129 0-2.259-.303-3.338-.81-1.078-.557-1.745-1.014-2.105-1.368a19.737 19.737 0 01-.719-.862l-3.338 3.294.36.456c.257.304.616.659 1.13 1.064.564.456 1.181.861 1.848 1.267.719.405 1.643.76 2.722 1.064 1.078.304 2.259.456 3.44.456 2.722 0 4.981-.76 6.676-2.23 1.694-1.469 2.567-3.293 2.567-5.37 0-1.369-.308-2.534-.924-3.446-.616-.963-1.387-1.672-2.362-2.128-.924-.507-1.951-.912-3.03-1.267-1.078-.354-2.054-.709-3.029-.912a6.965 6.965 0 01-2.311-1.114c-.616-.456-.925-1.064-.925-1.774 0-.659.309-1.267.976-1.773.616-.507 1.489-.76 2.619-.76.822 0 1.643.203 2.413.557.822.355 1.387.659 1.644.912l.564.558 3.338-3.294z" fill="#fff"/></svg>
